mockup/templates/main/build/images/GROHE SafeStop plus.svg

<svg xmlns="http://www.w3.org/2000/svg" width="48" height="48" viewBox="0 0 48 48">
  <g fill="none" fill-rule="evenodd">
    <rect width="48" height="48" fill="#132D52" rx="8"/>
    <path fill="#FFF" d="M11.1215398 38.483185C11.1215398 38.1581693 11.3246746 37.9387837 11.6117718 37.9387837 11.8609505 37.9387837 12.0261668 38.0769154 12.0613768 38.3071348 12.2997216 38.0498307 12.611195 37.8981567 12.9714207 37.8981567 13.3803987 37.8981567 13.7270821 38.06879 13.9870947 38.3965141 14.2552326 38.0850408 14.6831699 37.8981567 15.016311 37.8981567 15.8125994 37.8981567 16.3597091 38.3613041 16.3597091 39.2171787L16.3597091 41.0941442C16.3597091 41.4218683 16.1511574 41.6385455 15.8667687 41.6385455 15.5823799 41.6385455 15.3792451 41.4218683 15.3792451 41.0941442L15.3792451 39.3878119C15.3792451 38.9923762 15.1598596 38.7134044 14.8077592 38.7134044 14.4475335 38.7134044 14.228148 38.9923762 14.228148 39.3878119L14.228148 41.0941442C14.228148 41.4218683 14.0250132 41.6385455 13.7406245 41.6385455 13.4535273 41.6385455 13.2503925 41.4218683 13.2503925 41.0941442L13.2503925 39.3878119C13.2503925 38.9923762 13.0337154 38.7134044 12.6789066 38.7134044 12.2780539 38.7134044 12.0992953 38.9923762 12.0992953 39.3878119L12.0992953 41.0941442C12.0992953 41.4218683 11.8961605 41.6385455 11.6117718 41.6385455 11.3246746 41.6385455 11.1215398 41.4218683 11.1215398 41.0941442L11.1215398 38.483185zM18.6968426 40.7815875C19.2060339 40.7815875 19.4497956 40.2669793 19.4497956 39.7957066 19.4497956 39.3271423 19.2114508 38.7962834 18.6968426 38.7962834 18.1605668 38.7962834 17.9222219 39.3271423 17.9222219 39.7957066 17.9222219 40.2669793 18.1686922 40.7815875 18.6968426 40.7815875L18.6968426 40.7815875zM20.432968 40.9982646C20.432968 41.2528602 20.432968 41.6374621 19.9616953 41.6374621 19.6745981 41.6374621 19.5608426 41.4830796 19.493131 41.2230671 19.2412439 41.5237066 18.9351875 41.6807975 18.5614194 41.6807975 17.6432502 41.6807975 16.9444665 40.8953429 16.9444665 39.7957066 16.9444665 38.7204464 17.6622094 37.8997818 18.5614194 37.8997818 18.9216451 37.8997818 19.2764539 38.0406219 19.493131 38.3493868 19.5202157 38.111042 19.7233505 37.9377003 19.9616953 37.9377003 20.432968 37.9377003 20.432968 38.3277191 20.432968 38.5796063L20.432968 40.9982646zM22.0082107 39.699827L21.1794207 38.7681154C21.0954583 38.6733191 21.0304552 38.5378959 21.0304552 38.4133066 21.0304552 38.158711 21.2796339 37.9393254 21.531521 37.9393254 21.6913204 37.9393254 21.7915335 38.007037 21.8944552 38.1316263L22.5796966 38.9847925 23.2676464 38.1316263C23.3678596 38.007037 23.4707812 37.9393254 23.6278721 37.9393254 23.8770508 37.9393254 24.1289379 38.158711 24.1289379 38.4133066 24.1289379 38.5378959 24.0612263 38.6733191 23.9826809 38.7681154L23.1511824 39.699827 24.1451887 40.8292564C24.2183172 40.9105103 24.2806119 41.0540589 24.2806119 41.165106 24.2806119 41.4494947 24.082894 41.6390871 23.7957969 41.6390871 23.5791197 41.6390871 23.4924489 41.5442909 23.3895273 41.42241L22.5796966 40.4284038 21.7698658 41.42241C21.6696527 41.5442909 21.5802734 41.6390871 21.3635962 41.6390871 21.0764991 41.6390871 20.8787812 41.4494947 20.8787812 41.165106 20.8787812 41.0540589 20.9383674 40.9105103 21.0169129 40.8292564L22.0082107 39.699827z"/>
    <path fill="#FFF" fill-rule="nonzero" d="M28.2913907,41.4966887 L28.2913907,40.8807947 L26.6291391,40.8807947 C26.419425,40.8807947 26.2621418,40.8333338 26.1572848,40.7384106 C26.0524277,40.6434874 26,40.5143496 26,40.3509934 C26,40.3090506 26.0077262,40.2665565 26.0231788,40.2235099 C26.0386314,40.1804634 26.06181,40.13521 26.0927152,40.0877483 C26.1236205,40.0402867 26.155629,39.9944815 26.1887417,39.9503311 C26.2218545,39.9061808 26.2626929,39.8520975 26.3112583,39.7880795 L28.0662252,37.4403974 C28.181016,37.2858712 28.2753859,37.1738414 28.3493377,37.1043046 C28.4232896,37.0347679 28.5121408,37 28.615894,37 C28.9514366,37 29.1192053,37.1920511 29.1192053,37.5761589 L29.1192053,40.1390728 L29.2615894,40.1390728 C29.4315682,40.1390728 29.5678803,40.1622514 29.6705298,40.2086093 C29.7731793,40.2549671 29.8245033,40.3565114 29.8245033,40.513245 C29.8245033,40.641281 29.7825611,40.7345472 29.6986755,40.7930464 C29.6147899,40.8515455 29.4889633,40.8807947 29.3211921,40.8807947 L29.1192053,40.8807947 L29.1192053,41.4966887 C29.1192053,41.6666675 29.0816781,41.7930459 29.0066225,41.8758278 C28.931567,41.9586097 28.8311265,42 28.705298,42 C28.5816771,42 28.4817885,41.9575059 28.4056291,41.8725166 C28.3294698,41.7875272 28.2913907,41.6622525 28.2913907,41.4966887 Z M26.8675497,40.1390728 L28.2913907,40.1390728 L28.2913907,38.2152318 L26.8675497,40.1390728 Z M31.8046358,38.986755 C32.0077273,38.986755 32.1826703,38.9271529 32.3294702,38.807947 C32.47627,38.6887411 32.5496689,38.5176612 32.5496689,38.294702 C32.5496689,38.1247232 32.4911706,37.9784774 32.3741722,37.8559603 C32.2571738,37.7334431 32.0993387,37.6721854 31.9006623,37.6721854 C31.7660037,37.6721854 31.6550777,37.690949 31.5678808,37.7284768 C31.4806839,37.7660046 31.4117,37.815673 31.3609272,37.8774834 C31.3101543,37.9392939 31.2621415,38.0187633 31.2168874,38.115894 C31.1716333,38.2130248 31.130243,38.3046353 31.0927152,38.3907285 C31.0706401,38.4370863 31.0309054,38.4735098 30.9735099,38.5 C30.9161145,38.5264902 30.84989,38.5397351 30.7748344,38.5397351 C30.6865338,38.5397351 30.6054088,38.5038635 30.531457,38.4321192 C30.4575051,38.3603749 30.4205298,38.2649013 30.4205298,38.1456954 C30.4205298,38.0309045 30.4552977,37.9100448 30.5248344,37.7831126 C30.5943712,37.6561804 30.6959154,37.5353207 30.8294702,37.4205298 C30.963025,37.3057389 31.1291381,37.2135765 31.3278146,37.1440397 C31.5264911,37.074503 31.7483431,37.0397351 31.9933775,37.0397351 C32.2075066,37.0397351 32.4028689,37.0689843 32.5794702,37.1274834 C32.7560715,37.1859826 32.9094916,37.2704189 33.0397351,37.3807947 C33.1699786,37.4911705 33.2682116,37.6192046 33.3344371,37.7649007 C33.4006626,37.9105968 33.4337748,38.0673281 33.4337748,38.2350993 C33.4337748,38.455851 33.3857621,38.6451427 33.2897351,38.8029801 C33.1937081,38.9608176 33.0562923,39.1147895 32.8774834,39.2649007 C33.0496697,39.3576164 33.1948118,39.4635756 33.3129139,39.5827815 C33.431016,39.7019874 33.5198673,39.8338845 33.5794702,39.9784768 C33.6390731,40.1230692 33.6688742,40.2792486 33.6688742,40.4470199 C33.6688742,40.6479039 33.6285876,40.8421624 33.5480132,41.0298013 C33.4674389,41.2174402 33.3487867,41.3846571 33.192053,41.531457 C33.0353193,41.6782568 32.8493388,41.7930459 32.634106,41.8758278 C32.4188731,41.9586097 32.1810168,42 31.9205298,42 C31.6556278,42 31.4183233,41.9525391 31.2086093,41.8576159 C30.9988952,41.7626927 30.8261596,41.6440404 30.6903974,41.5016556 C30.5546351,41.3592708 30.4519871,41.2119213 30.3824503,41.0596026 C30.3129136,40.907284 30.2781457,40.7814575 30.2781457,40.6821192 C30.2781457,40.5540832 30.319536,40.4508834 30.4023179,40.3725166 C30.4850998,40.2941497 30.5882996,40.2549669 30.7119205,40.2549669 C30.773731,40.2549669 30.833333,40.2731786 30.8907285,40.3096026 C30.9481239,40.3460267 30.9856511,40.3896245 31.0033113,40.4403974 C31.1181021,40.7472422 31.2411693,40.9751648 31.3725166,41.1241722 C31.5038638,41.2731796 31.6887405,41.3476821 31.9271523,41.3476821 C32.0640183,41.3476821 32.1959155,41.314018 32.3228477,41.2466887 C32.4497799,41.1793595 32.5546353,41.0794709 32.6374172,40.9470199 C32.7201991,40.8145689 32.7615894,40.6611488 32.7615894,40.486755 C32.7615894,40.2284755 32.6909499,40.0259389 32.5496689,39.8791391 C32.4083878,39.7323392 32.2119218,39.6589404 31.9602649,39.6589404 C31.9161146,39.6589404 31.8476826,39.6633554 31.7549669,39.6721854 C31.6622512,39.6810155 31.6026491,39.6854305 31.5761589,39.6854305 C31.4547455,39.6854305 31.3609275,39.6550776 31.294702,39.5943709 C31.2284765,39.5336642 31.1953642,39.4492279 31.1953642,39.3410596 C31.1953642,39.2350988 31.2350989,39.1495588 31.3145695,39.0844371 C31.3940401,39.0193153 31.5121405,38.986755 31.6688742,38.986755 L31.8046358,38.986755 Z"/>
    <path fill="#FFF" d="M35.7807498 38.3323235C36.0840978 38.3323235 36.3441103 38.0750194 36.3441103 37.768963 36.3441103 37.4629066 36.0840978 37.202894 35.7807498 37.202894 35.4746934 37.202894 35.2146809 37.4629066 35.2146809 37.768963 35.2146809 38.0750194 35.4746934 38.3323235 35.7807498 38.3323235M35.7807498 36.6747436C36.3847373 36.6747436 36.8749693 37.1622671 36.8749693 37.768963 36.8749693 38.3756589 36.3847373 38.8631824 35.7807498 38.8631824 35.1740539 38.8631824 34.6865304 38.3756589 34.6865304 37.768963 34.6865304 37.1622671 35.1740539 36.6747436 35.7807498 36.6747436M23.121931 7C15.3215549 7 9 13.3215549 9 21.121931 9 24.093116 9.68253292 27.8578809 13.5556364 31.0132414 13.7425204 31.1297053 13.9158621 31.1892915 14.0052414 31.0890784 14.0892038 30.9807398 14.0377429 30.8724013 13.9673229 30.7911473 13.9023197 30.7369781 13.8237743 30.6638495 13.7371034 30.5825956 13.7046019 30.555511 13.6748088 30.5284263 13.6395987 30.4959248 12.4722508 29.3908715 9.95337931 26.4873981 9.94254545 21.9967649 9.94254545 15.1253918 15.5111473 9.5540815 22.3825204 9.5540815 25.9549843 9.5540815 29.169931 11.0735298 31.4369154 13.4867712L33.7282759 11.3254169C30.9087649 8.64945455 27.1331661 7 23.121931 7"/>
    <path fill="#FFF" d="M28.6843034,16.9663348 L28.5922157,17.0502972 C28.5840903,17.061131 28.5759649,17.0692564 28.5759649,17.0692564 L28.5786734,17.0638395 L25.9758395,19.4933317 C25.7266608,19.7235511 25.3393505,19.7100088 25.1064226,19.4608301 C24.8762031,19.2116514 24.8897455,18.8270495 25.1362157,18.5941216 L27.9394759,15.9804539 C28.045106,15.8558646 28.1859461,15.6175197 28.0071875,15.3656326 C27.4465354,14.8591498 26.8127549,14.4095448 26.1031373,14.0547361 C21.921269,11.9502596 16.8293567,13.6430495 14.7302972,17.8249179 C12.6312376,22.0094947 14.3213191,27.1014069 18.5058959,29.2004665 C22.6877643,31.2968176 27.7796765,29.6067361 29.8787361,25.4221592 C31.2790119,22.6297329 30.9837893,19.4337455 29.3912125,16.9934194 C29.1068238,16.7009053 28.833269,16.8444539 28.6843034,16.9663348"/>
    <path fill="#B4C0D0" d="M38.5076313,21.1056803 C38.1853241,17.2461191 36.3598194,13.8036614 33.6811486,11.279373 L33.3344652,10.9624828 C33.3344652,10.9624828 31.3464527,12.820489 31.0485216,13.0967524 C31.2056125,13.2484263 31.3545781,13.3973918 31.4818759,13.538232 C33.5484339,15.7591724 34.8214119,18.7249404 34.8214119,21.9967649 C34.8214119,25.7831975 32.3648351,28.9412665 32.3648351,28.9412665 C32.2781643,29.0631473 32.1942019,29.1796113 32.1102395,29.2879498 C31.9748163,29.5127524 31.7825154,29.9975674 32.3025404,30.4986332 C32.6844339,30.8832351 33.1909166,31.4005517 33.7299009,31.9395361 C33.7299009,31.9395361 34.3365969,32.5543574 34.8403712,31.9855799 L34.9541266,31.8582821 C34.962252,31.8474483 34.9703774,31.8393229 34.9785028,31.8257806 C35.8831298,30.7532288 36.6712928,29.3421191 36.6712928,29.3421191 C38.0173994,26.7880376 38.7161831,24.2610408 38.5076313,21.1056803"/>
  </g>
</svg>

<svg xmlns="http://www.w3.org/2000/svg" width="48" height="48"><g fill="none" fill-rule="evenodd"><rect width="48" height="48" fill="#132D52" rx="8"/><path fill="#FFF" d="M11.122 38.483c0-.325.203-.544.49-.544.249 0 .414.138.45.368a1.22 1.22 0 0 1 .91-.409c.408 0 .755.17 1.015.499.268-.312.696-.499 1.03-.499.796 0 1.343.463 1.343 1.32v1.876c0 .328-.209.545-.493.545-.285 0-.488-.217-.488-.545v-1.706c0-.396-.22-.675-.571-.675-.36 0-.58.28-.58.675v1.706c0 .328-.203.545-.487.545-.287 0-.49-.217-.49-.545v-1.706c0-.396-.217-.675-.572-.675-.4 0-.58.28-.58.675v1.706c0 .328-.203.545-.487.545-.287 0-.49-.217-.49-.545v-2.61zm7.575 2.299c.509 0 .753-.515.753-.986 0-.469-.239-1-.753-1-.536 0-.775.531-.775 1 0 .471.247.986.775.986zm1.736.216c0 .255 0 .64-.471.64-.287 0-.401-.155-.469-.415-.252.3-.558.458-.932.458-.918 0-1.617-.786-1.617-1.885 0-1.076.718-1.896 1.617-1.896.36 0 .715.14.932.45a.467.467 0 0 1 .469-.412c.471 0 .471.39.471.642v2.418zm1.575-1.298l-.829-.932a.572.572 0 0 1-.149-.355c0-.254.25-.474.502-.474.16 0 .26.068.362.193l.686.853.688-.853c.1-.125.203-.193.36-.193.25 0 .5.22.5.474a.6.6 0 0 1-.145.355l-.832.932.994 1.13a.568.568 0 0 1 .136.335c0 .284-.198.474-.485.474-.217 0-.304-.095-.406-.217l-.81-.994-.81.994c-.1.122-.19.217-.406.217-.288 0-.485-.19-.485-.474a.54.54 0 0 1 .138-.336l.991-1.13z"/><path fill="#FFF" fill-rule="nonzero" d="M28.291 41.497v-.616H26.63c-.21 0-.367-.048-.472-.143a.496.496 0 0 1-.064-.65c.03-.048.063-.094.096-.138a38 38 0 0 1 .122-.162l1.755-2.348c.115-.154.21-.266.283-.336a.375.375 0 0 1 .267-.104c.335 0 .503.192.503.576v2.563h.143c.17 0 .306.023.409.07.102.046.154.148.154.304 0 .128-.042.222-.126.28-.084.059-.21.088-.378.088h-.202v.616c0 .17-.037.296-.112.379a.387.387 0 0 1-.302.124.383.383 0 0 1-.3-.127c-.076-.085-.114-.21-.114-.376zm-1.423-1.358h1.423v-1.924l-1.423 1.924zm4.937-1.152a.8.8 0 0 0 .524-.18c.147-.118.22-.29.22-.512a.613.613 0 0 0-.648-.623.847.847 0 0 0-.333.056.535.535 0 0 0-.207.15c-.05.061-.099.14-.144.238-.045.097-.087.189-.124.275a.233.233 0 0 1-.12.109.47.47 0 0 1-.198.04.343.343 0 0 1-.244-.108.38.38 0 0 1-.11-.286c0-.115.034-.236.104-.363.07-.127.17-.248.304-.362.134-.115.3-.207.499-.277.198-.07.42-.104.665-.104.215 0 .41.029.586.087.177.059.33.143.46.254a1.094 1.094 0 0 1 .395.854c0 .22-.048.41-.144.568a1.916 1.916 0 0 1-.413.462c.173.093.318.199.436.318a1.203 1.203 0 0 1 .356.864 1.463 1.463 0 0 1-.477 1.084 1.697 1.697 0 0 1-.558.345 1.973 1.973 0 0 1-.713.124c-.265 0-.503-.047-.712-.142a1.64 1.64 0 0 1-.827-.798.96.96 0 0 1-.104-.378c0-.128.042-.231.124-.31a.433.433 0 0 1 .31-.117.33.33 0 0 1 .179.055c.057.036.095.08.112.13.115.307.238.535.37.684.13.15.316.224.554.224a.834.834 0 0 0 .71-.401.85.85 0 0 0 .125-.46c0-.259-.071-.461-.212-.608-.142-.147-.338-.22-.59-.22-.044 0-.112.004-.205.013a2.526 2.526 0 0 1-.179.013.402.402 0 0 1-.281-.09.326.326 0 0 1-.1-.254c0-.106.04-.191.12-.257.079-.065.197-.097.354-.097h.136z"/><path fill="#FFF" d="M35.78 38.332a.572.572 0 0 0 .564-.563.574.574 0 0 0-.563-.566.575.575 0 0 0-.566.566c0 .306.26.563.566.563m0-1.657a1.093 1.093 0 1 1 0 2.188 1.091 1.091 0 0 1-1.094-1.094 1.09 1.09 0 0 1 1.094-1.094M23.12 7C15.322 7 9 13.322 9 21.122c0 2.971.683 6.736 4.556 9.891.187.117.36.176.45.076.083-.108.032-.217-.039-.298a5.782 5.782 0 0 1-.23-.208 2.52 2.52 0 0 1-.097-.087c-1.168-1.105-3.687-4.009-3.697-8.5 0-6.87 5.568-12.442 12.44-12.442 3.572 0 6.787 1.52 9.054 3.933l2.291-2.162C30.908 8.65 27.133 7 23.122 7"/><path fill="#FFF" d="M28.684 16.966l-.092.084a.197.197 0 0 1-.016.02l.003-.006-2.603 2.43a.616.616 0 0 1-.84-.9l2.803-2.614c.106-.124.247-.362.068-.614a8.545 8.545 0 0 0-1.904-1.311c-4.182-2.105-9.274-.412-11.373 3.77a8.474 8.474 0 1 0 15.149 7.597 8.46 8.46 0 0 0-.488-8.429c-.284-.292-.558-.149-.707-.027"/><path fill="#B4C0D0" d="M38.508 21.106c-.323-3.86-2.148-7.302-4.827-9.827l-.347-.317-2.285 2.135a12.373 12.373 0 0 1 3.773 8.9c0 3.786-2.457 6.944-2.457 6.944-.087.122-.17.239-.255.347-.135.225-.327.71.193 1.21.381.385.888.903 1.427 1.442 0 0 .607.614 1.11.046l.114-.128.025-.032c.904-1.073 1.692-2.484 1.692-2.484 1.346-2.554 2.045-5.081 1.837-8.236"/></g></svg>
